src/pos-icons/folder-information-outline.svg

<svg height="24" viewBox="0 0 24 24" width="24" xmlns="http://www.w3.org/2000/svg"><path d="m21 11.1v-3.1c0-1.1-.9-2-2-2h-8l-2-2h-6c-1.1 0-2 .9-2 2v12c0 1.1.9 2 2 2h7.2c1.2 1.8 3.4 3 5.8 3 3.9 0 7-3.1 7-7 0-1.9-.8-3.6-2-4.9m-11.7 6.9h-6.3v-10h16v1.7c-.9-.5-1.9-.7-3-.7-3.9 0-7 3.1-7 7 0 .7.1 1.4.3 2m6.7 3c-2.8 0-5-2.2-5-5s2.2-5 5-5 5 2.2 5 5-2.2 5-5 5m1-7h-2v-2h2zm0 6h-2v-5h2z"/></svg>

<?xml version="1.0" encoding="UTF-8"?><!DOCTYPE svg PUBLIC "-//W3C//DTD SVG 1.1//EN" "http://www.w3.org/Graphics/SVG/1.1/DTD/svg11.dtd"><svg xmlns="http://www.w3.org/2000/svg" xmlns:xlink="http://www.w3.org/1999/xlink" version="1.1" id="mdi-folder-information-outline" width="24" height="24" viewBox="0 0 24 24"><path d="M21 11.1V8C21 6.9 20.1 6 19 6H11L9 4H3C1.9 4 1 4.9 1 6V18C1 19.1 1.9 20 3 20H10.2C11.4 21.8 13.6 23 16 23C19.9 23 23 19.9 23 16C23 14.1 22.2 12.4 21 11.1M9.3 18H3V8H19V9.7C18.1 9.2 17.1 9 16 9C12.1 9 9 12.1 9 16C9 16.7 9.1 17.4 9.3 18M16 21C13.2 21 11 18.8 11 16S13.2 11 16 11 21 13.2 21 16 18.8 21 16 21M17 14H15V12H17V14M17 20H15V15H17V20Z" /></svg>
